X: 39
T:Esther's Reel
M:C|
L:1/8
R:reel
D:Buttons and Bo
Z:Devin McCabe
K:D
ED|:CDEF GABc|d~D3 ADFD|EFGA BAGF|1EBAF GEED:|2EBAF GEE2|
|:g3e fed2|efga gfef|e~B3 dBAF|1GBAF GEE2:|2GBAF GFED||
